X:2512
T:Astley's Ride
T:Drumley's
C:anon.
O:England
Z:C.G.P
F:http://abc.musicaviva.com/tunes/england/astleys-ride.abc
%Posted at abcusers Jan 2nd 2001 by Johnny Adams.
M:2/4
L:1/8
Q:200
K:D
|:a/f/|dd dc/-d/|ee ef/-e/|d/c/B/A/ Bc|d/e/f/g/ a/g/f/e/|dd dc/-d/|
ee ef/-e/|d/c/B/A/ Bc|d3::A|ff fe/-f/|gg gb/-g/|
ee ed/-e/|ff f/g/a/f/|dd dc/-d/|ee ef/e/|d/c/B/A/ Bc|d3:|
W:
W:
W:  From Musica Viva - http://www.musicaviva.com
W:  the Internet center for free sheet music downloads.
